SVG_Azure_All/Activity.svg

<?xml version="1.0" encoding="UTF-8" standalone="no"?>
<!-- Generated by Microsoft Visio, SVG Export Activity.svg Page-1 -->

<svg
   xmlns:dc="http://purl.org/dc/elements/1.1/"
   xmlns:cc="http://creativecommons.org/ns#"
   xmlns:rdf="http://www.w3.org/1999/02/22-rdf-syntax-ns#"
   xmlns:svg="http://www.w3.org/2000/svg"
   xmlns="http://www.w3.org/2000/svg"
   xmlns:sodipodi="http://sodipodi.sourceforge.net/DTD/sodipodi-0.dtd"
   xmlns:inkscape="http://www.inkscape.org/namespaces/inkscape"
   width="0.79188687in"
   height="0.7839244in"
   viewBox="0 0 57.016104 56.442444"
   xml:space="preserve"
   class="st7"
   version="1.1"
   id="svg97"
   sodipodi:docname="Activity.svg"
   style="font-size:12px;overflow:visible;color-interpolation-filters:sRGB;fill:none;fill-rule:evenodd;stroke-linecap:square;stroke-miterlimit:3"
   inkscape:version="0.92.5 (2060ec1f9f, 2020-04-08)"><metadata
   id="metadata103"><rdf:RDF><cc:Work
       rdf:about=""><dc:format>image/svg+xml</dc:format><dc:type
         rdf:resource="http://purl.org/dc/dcmitype/StillImage" /></cc:Work></rdf:RDF></metadata><defs
   id="defs101" /><sodipodi:namedview
   pagecolor="#ffffff"
   bordercolor="#666666"
   borderopacity="1"
   objecttolerance="10"
   gridtolerance="10"
   guidetolerance="10"
   inkscape:pageopacity="0"
   inkscape:pageshadow="2"
   inkscape:window-width="640"
   inkscape:window-height="480"
   id="namedview99"
   showgrid="false"
   inkscape:zoom="1.7961739"
   inkscape:cx="38.008762"
   inkscape:cy="19.799115"
   inkscape:window-x="0"
   inkscape:window-y="0"
   inkscape:window-maximized="0"
   inkscape:current-layer="svg97" />
	<style
   type="text/css"
   id="style2">
	<![CDATA[
		.st1 {fill:#ffffff;stroke:none;stroke-linecap:butt;stroke-width:7.67604}
		.st2 {fill:#3999c6;stroke:none;stroke-linecap:butt;stroke-width:7.67604}
		.st3 {fill:#a0a1a2;stroke:none;stroke-linecap:butt;stroke-width:7.67604}
		.st4 {fill:#59b4d9;stroke:none;stroke-linecap:butt;stroke-width:7.67604}
		.st5 {fill:#7a7a7a;stroke:none;stroke-linecap:butt;stroke-width:7.67604}
		.st6 {fill:#000000;stroke:none;stroke-linecap:butt;stroke-width:7.67604}
		.st7 {fill:none;fill-rule:evenodd;font-size:12px;overflow:visible;stroke-linecap:square;stroke-miterlimit:3}
	]]>
	</style>

	<g
   id="g95"
   transform="translate(-7.6749043,-7.6782123)">
		<title
   id="title4">Page-1</title>
		<g
   id="group10419-1"
   transform="translate(7.83454,-34.0157)">
			<title
   id="title6">Activity</title>
			<g
   id="group10420-2">
				<title
   id="title8">Page-1</title>
				<g
   id="group10421-3">
					<title
   id="title10">Activity</title>
					<g
   id="group10422-4"
   transform="translate(4.82304,-4.65209)">
						<title
   id="title12">path7</title>
						<g
   id="shape10423-5">
							<title
   id="title14">path10</title>
							<path
   d="M 21.05,51.28 A 23.5588,23.3248 -180 0 0 5.14,59.84 23.5702,23.3361 -180 0 0 0,77.03 23.5656,23.3316 -180 0 0 8.65,92.77 c 4.71,3.78 10.85,5.77 17.35,5.09 6.5,-0.68 12.09,-3.89 15.91,-8.56 3.81,-4.66 5.82,-10.74 5.13,-17.18 -0.68,-6.49 -4.01,-12.05 -8.8,-15.88 -4.02,-3.23 -9.16,-5.1 -14.66,-5.1 -0.83,0 -1.68,0.05 -2.53,0.14 z"
   class="st1"
   id="path16"
   inkscape:connector-curvature="0"
   style="fill:#ffffff;stroke:none;stroke-width:7.67604017;stroke-linecap:butt" />
						</g>
					</g>
					<g
   id="group10424-7"
   transform="translate(16.3368)">
						<title
   id="title20">path9</title>
						<g
   id="shape10425-8">
							<title
   id="title22">path15</title>
							<path
   d="M 40.36,66.96 C 39.53,59.13 35.49,52.42 29.78,47.85 28.67,46.97 27.48,46.19 26.25,45.48 l -2.24,4.27 a 22.5987,22.3743 0 0 1 2.71,1.84 c 4.8,3.83 8.12,9.38 8.81,15.87 0.69,6.44 -1.32,12.53 -5.13,17.19 -3.82,4.67 -9.41,7.88 -15.91,8.56 C 10.13,93.66 5.95,92.9 2.23,91.22 L 0,95.49 c 4.53,2.08 9.67,3.05 15,2.49 a 28.4069,28.1248 -180 0 0 19.16,-10.31 28.4001,28.118 -180 0 0 6.2,-20.71 z"
   class="st2"
   id="path24"
   inkscape:connector-curvature="0"
   style="fill:#3999c6;stroke:none;stroke-width:7.67604017;stroke-linecap:butt" />
						</g>
					</g>
					<g
   id="group10426-10"
   transform="translate(0,-3.05813)">
						<title
   id="title28">path11</title>
						<g
   id="shape10427-11">
							<title
   id="title30">path20</title>
							<path
   d="M 13.46,91.18 A 23.561,23.327 0 0 1 4.83,75.43 23.561,23.327 0 0 1 9.96,58.24 23.5519,23.318 0 0 1 25.87,49.69 c 5.26,-0.55 10.28,0.64 14.48,3.11 l 2.23,-4.26 A 28.3191,28.0379 -180 0 0 25.36,44.91 28.4411,28.1586 -180 0 0 6.19,55.22 L 6.18,55.23 A 28.4366,28.1542 -180 0 0 0,75.93 28.4308,28.1485 -180 0 0 10.42,94.91 c 1.8,1.45 3.8,2.65 5.92,3.63 l 2.23,-4.26 a 23.7321,23.4964 0 0 1 -5.11,-3.1 z"
   class="st3"
   id="path32"
   inkscape:connector-curvature="0"
   style="fill:#a0a1a2;stroke:none;stroke-width:7.67604017;stroke-linecap:butt" />
						</g>
					</g>
					<g
   id="group10428-13"
   transform="translate(0,-3.05813)">
						<title
   id="title36">path13</title>
						<g
   id="shape10429-14">
							<title
   id="title38">path25</title>
							<path
   d="M 13.46,91.18 A 23.561,23.327 0 0 1 4.83,75.43 23.561,23.327 0 0 1 9.96,58.24 23.5519,23.318 0 0 1 25.87,49.69 c 5.26,-0.55 10.28,0.64 14.48,3.11 l 2.23,-4.26 A 28.3191,28.0379 -180 0 0 25.36,44.91 28.4411,28.1586 -180 0 0 6.19,55.22 L 6.18,55.23 A 28.4366,28.1542 -180 0 0 0,75.93 28.4308,28.1485 -180 0 0 10.42,94.91 c 1.8,1.45 3.8,2.65 5.92,3.63 l 2.23,-4.26 a 23.7321,23.4964 0 0 1 -5.11,-3.1 z"
   class="st4"
   id="path40"
   inkscape:connector-curvature="0"
   style="fill:#59b4d9;stroke:none;stroke-width:7.67604017;stroke-linecap:butt" />
						</g>
					</g>
					<g
   id="group10430-16"
   transform="translate(27.9395,-21.2217)">
						<title
   id="title44">path15</title>
						<g
   id="shape10431-17">
							<title
   id="title46">path30</title>
							<path
   d="M 12.38,98.54 1.43,94.68 a 2.28039,2.25774 0 1 1 1.53,-4.25 l 10.95,3.86 a 2.28039,2.25774 0 1 1 -1.53,4.25 z"
   class="st5"
   id="path48"
   inkscape:connector-curvature="0"
   style="fill:#7a7a7a;stroke:none;stroke-width:7.67604017;stroke-linecap:butt" />
						</g>
					</g>
					<g
   id="group10432-19"
   transform="translate(25.8392,-25.4945)">
						<title
   id="title52">path17</title>
						<g
   id="shape10433-20">
							<title
   id="title54">path35</title>
							<path
   d="M 2.28,98.54 A 2.28039,2.25774 0 0 1 0,96.28 V 77.07 a 2.28073,2.25808 0 1 1 4.56,0 v 19.21 a 2.28039,2.25774 0 0 1 -2.28,2.26 z"
   class="st5"
   id="path56"
   inkscape:connector-curvature="0"
   style="fill:#7a7a7a;stroke:none;stroke-width:7.67604017;stroke-linecap:butt" />
						</g>
					</g>
					<g
   id="group10434-22"
   transform="translate(24.7891,-24.4585)">
						<title
   id="title60">circle19</title>
						<g
   id="shape10435-23">
							<title
   id="title62">ellipse40</title>
							<ellipse
   cx="3.3305199"
   cy="95.245102"
   rx="3.3305199"
   ry="3.2974401"
   class="st6"
   id="ellipse64"
   style="fill:#000000;stroke:none;stroke-width:7.67604017;stroke-linecap:butt" />
						</g>
					</g>
					<g
   id="group10436-25"
   transform="translate(13.4155,-14.1809)">
						<title
   id="title68">path21</title>
						<g
   id="shape10437-26">
							<title
   id="title70">path45</title>
							<path
   d="M 0.93,69.31 3.79,72.14 2.87,73.06 0,70.22 Z m 13.34,-5.44 h 1.3 v 4.02 h -1.3 z m 14.51,5.57 0.93,0.91 -2.87,2.84 -0.92,-0.91 z m 2.18,13.99 h 4.05 v 1.3 h -4.05 z m -4.31,11.36 2.87,2.84 -0.92,0.91 -2.87,-2.84 z"
   class="st5"
   id="path72"
   inkscape:connector-curvature="0"
   style="fill:#7a7a7a;stroke:none;stroke-width:7.67604017;stroke-linecap:butt" />
						</g>
					</g>
					<g
   id="group10438-28"
   transform="translate(13.4155,-8.81087)">
						<title
   id="title76">path23</title>
						<g
   id="shape10439-29">
							<title
   id="title78">path50</title>
							<path
   d="m 26.65,89.41 2.87,2.84 -0.92,0.92 -2.87,-2.84 z m -12.38,5.11 h 1.3 v 4.02 h -1.3 z M 0.93,63.94 3.79,66.78 2.87,67.69 0,64.86 Z m 2.14,25.6 0.92,0.9 -2.87,2.84 -0.92,-0.9 z"
   class="st5"
   id="path80"
   inkscape:connector-curvature="0"
   style="fill:#7a7a7a;stroke:none;stroke-width:7.67604017;stroke-linecap:butt" />
						</g>
					</g>
					<g
   id="group10440-31"
   transform="translate(7.99508,-14.0624)">
						<title
   id="title84">path25</title>
						<g
   id="shape10441-32">
							<title
   id="title86">path55</title>
							<path
   d="M 8.49,94.79 9.41,95.7 6.55,98.54 5.62,97.63 Z M 0,83.32 h 4.06 v 1.29 H 0 Z"
   class="st5"
   id="path88"
   inkscape:connector-curvature="0"
   style="fill:#7a7a7a;stroke:none;stroke-width:7.67604017;stroke-linecap:butt" />
						</g>
					</g>
				</g>
			</g>
		</g>
	</g>
</svg>

<?xml version="1.0" encoding="UTF-8" standalone="no"?>
<!DOCTYPE svg PUBLIC "-//W3C//DTD SVG 1.1//EN" "http://www.w3.org/Graphics/SVG/1.1/DTD/svg11.dtd">
<!-- Generated by Microsoft Visio, SVG Export Activity.svg Page-1 -->
<svg xmlns="http://www.w3.org/2000/svg" xmlns:xlink="http://www.w3.org/1999/xlink" xmlns:ev="http://www.w3.org/2001/xml-events"
		width="1.00504in" height="1.36865in" viewBox="0 0 72.3632 98.5426" xml:space="preserve" color-interpolation-filters="sRGB"
		class="st7">
	<style type="text/css">
	<![CDATA[
		.st1 {fill:#ffffff;stroke:none;stroke-linecap:butt;stroke-width:7.67604}
		.st2 {fill:#3999c6;stroke:none;stroke-linecap:butt;stroke-width:7.67604}
		.st3 {fill:#a0a1a2;stroke:none;stroke-linecap:butt;stroke-width:7.67604}
		.st4 {fill:#59b4d9;stroke:none;stroke-linecap:butt;stroke-width:7.67604}
		.st5 {fill:#7a7a7a;stroke:none;stroke-linecap:butt;stroke-width:7.67604}
		.st6 {fill:#000000;stroke:none;stroke-linecap:butt;stroke-width:7.67604}
		.st7 {fill:none;fill-rule:evenodd;font-size:12px;overflow:visible;stroke-linecap:square;stroke-miterlimit:3}
	]]>
	</style>

	<g>
		<title>Page-1</title>
		<g id="group10188-1" transform="translate(7.83454,-34.0157)">
			<title>Activity</title>
			<g id="group10189-2">
				<title>Page-1</title>
				<g id="group10190-3">
					<title>Activity</title>
					<g id="group10191-4" transform="translate(4.82304,-4.65209)">
						<title>path7</title>
						<g id="shape10192-5">
							<title>path10</title>
							<path d="M21.05 51.28 A23.5588 23.3248 -180 0 0 5.14 59.84 A23.5702 23.3361 -180 0 0 0 77.03 A23.5656
										 23.3316 -180 0 0 8.65 92.77 C13.36 96.55 19.5 98.54 26 97.86 C32.5 97.18 38.09 93.97 41.91
										 89.3 C45.72 84.64 47.73 78.56 47.04 72.12 C46.36 65.63 43.03 60.07 38.24 56.24 C34.22 53.01
										 29.08 51.14 23.58 51.14 C22.75 51.14 21.9 51.19 21.05 51.28 Z" class="st1"/>
						</g>
					</g>
					<g id="group10193-7" transform="translate(16.3368,-2.84217E-13)">
						<title>path9</title>
						<g id="shape10194-8">
							<title>path15</title>
							<path d="M40.36 66.96 C39.53 59.13 35.49 52.42 29.78 47.85 C28.67 46.97 27.48 46.19 26.25 45.48 L24.01
										 49.75 A22.5987 22.3743 0 0 1 26.72 51.59 C31.52 55.42 34.84 60.97 35.53 67.46 C36.22 73.9
										 34.21 79.99 30.4 84.65 C26.58 89.32 20.99 92.53 14.49 93.21 C10.13 93.66 5.95 92.9 2.23
										 91.22 L0 95.49 C4.53 97.57 9.67 98.54 15 97.98 A28.4069 28.1248 -180 0 0 34.16 87.67 A28.4001
										 28.118 -180 0 0 40.36 66.96 Z" class="st2"/>
						</g>
					</g>
					<g id="group10195-10" transform="translate(2.8777E-13,-3.05813)">
						<title>path11</title>
						<g id="shape10196-11">
							<title>path20</title>
							<path d="M13.46 91.18 A23.561 23.327 0 0 1 4.83 75.43 A23.561 23.327 0 0 1 9.96 58.24 A23.5519 23.318
										 0 0 1 25.87 49.69 C31.13 49.14 36.15 50.33 40.35 52.8 L42.58 48.54 A28.3191 28.0379 -180
										 0 0 25.36 44.91 A28.4411 28.1586 -180 0 0 6.19 55.22 L6.18 55.23 A28.4366 28.1542 -180 0
										 0 -0 75.93 A28.4308 28.1485 -180 0 0 10.42 94.91 C12.22 96.36 14.22 97.56 16.34 98.54 L18.57
										 94.28 A23.7321 23.4964 0 0 1 13.46 91.18 Z" class="st3"/>
						</g>
					</g>
					<g id="group10197-13" transform="translate(2.8777E-13,-3.05813)">
						<title>path13</title>
						<g id="shape10198-14">
							<title>path25</title>
							<path d="M13.46 91.18 A23.561 23.327 0 0 1 4.83 75.43 A23.561 23.327 0 0 1 9.96 58.24 A23.5519 23.318
										 0 0 1 25.87 49.69 C31.13 49.14 36.15 50.33 40.35 52.8 L42.58 48.54 A28.3191 28.0379 -180
										 0 0 25.36 44.91 A28.4411 28.1586 -180 0 0 6.19 55.22 L6.18 55.23 A28.4366 28.1542 -180 0
										 0 -0 75.93 A28.4308 28.1485 -180 0 0 10.42 94.91 C12.22 96.36 14.22 97.56 16.34 98.54 L18.57
										 94.28 A23.7321 23.4964 0 0 1 13.46 91.18 Z" class="st4"/>
						</g>
					</g>
					<g id="group10199-16" transform="translate(27.9395,-21.2217)">
						<title>path15</title>
						<g id="shape10200-17">
							<title>path30</title>
							<path d="M12.38 98.54 L1.43 94.68 A2.28039 2.25774 0 1 1 2.96 90.43 L13.91 94.29 A2.28039 2.25774 0 1
										 1 12.38 98.54 Z" class="st5"/>
						</g>
					</g>
					<g id="group10201-19" transform="translate(25.8392,-25.4945)">
						<title>path17</title>
						<g id="shape10202-20">
							<title>path35</title>
							<path d="M2.28 98.54 A2.28039 2.25774 0 0 1 0 96.28 L0 77.07 A2.28073 2.25808 0 1 1 4.56 77.07 L4.56
										 96.28 A2.28039 2.25774 0 0 1 2.28 98.54 Z" class="st5"/>
						</g>
					</g>
					<g id="group10203-22" transform="translate(24.7891,-24.4585)">
						<title>circle19</title>
						<g id="shape10204-23">
							<title>ellipse40</title>
							<ellipse cx="3.33052" cy="95.2451" rx="3.33052" ry="3.29744" class="st6"/>
						</g>
					</g>
					<g id="group10205-25" transform="translate(13.4155,-14.1809)">
						<title>path21</title>
						<g id="shape10206-26">
							<title>path45</title>
							<path d="M0.93 69.31 L3.79 72.14 L2.87 73.06 L0 70.22 L0.93 69.31 ZM14.27 63.87 L15.57 63.87 L15.57 67.89
										 L14.27 67.89 L14.27 63.87 ZM28.78 69.44 L29.71 70.35 L26.84 73.19 L25.92 72.28 L28.78 69.44
										 ZM30.96 83.43 L35.01 83.43 L35.01 84.73 L30.96 84.73 L30.96 83.43 ZM26.65 94.79 L29.52 97.63
										 L28.6 98.54 L25.73 95.7 L26.65 94.79 Z" class="st5"/>
						</g>
					</g>
					<g id="group10207-28" transform="translate(13.4155,-8.81087)">
						<title>path23</title>
						<g id="shape10208-29">
							<title>path50</title>
							<path d="M26.65 89.41 L29.52 92.25 L28.6 93.17 L25.73 90.33 L26.65 89.41 ZM14.27 94.52 L15.57 94.52 L15.57
										 98.54 L14.27 98.54 L14.27 94.52 ZM0.93 63.94 L3.79 66.78 L2.87 67.69 L0 64.86 L0.93 63.94
										 ZM3.07 89.54 L3.99 90.44 L1.12 93.28 L0.2 92.38 L3.07 89.54 Z" class="st5"/>
						</g>
					</g>
					<g id="group10209-31" transform="translate(7.99508,-14.0624)">
						<title>path25</title>
						<g id="shape10210-32">
							<title>path55</title>
							<path d="M8.49 94.79 L9.41 95.7 L6.55 98.54 L5.62 97.63 L8.49 94.79 ZM0 83.32 L4.06 83.32 L4.06 84.61
										 L0 84.61 L0 83.32 Z" class="st5"/>
						</g>
					</g>
				</g>
			</g>
		</g>
	</g>
</svg>
